SVG_Azure_Grouped/Data/HDInsight Cluster.svg

<?xml version="1.0" encoding="UTF-8" standalone="no"?>
<!-- Generated by Microsoft Visio, SVG Export HDInsight Cluster.svg Page-1 -->

<svg
   xmlns:dc="http://purl.org/dc/elements/1.1/"
   xmlns:cc="http://creativecommons.org/ns#"
   xmlns:rdf="http://www.w3.org/1999/02/22-rdf-syntax-ns#"
   xmlns:svg="http://www.w3.org/2000/svg"
   xmlns="http://www.w3.org/2000/svg"
   xmlns:xlink="http://www.w3.org/1999/xlink"
   xmlns:sodipodi="http://sodipodi.sourceforge.net/DTD/sodipodi-0.dtd"
   xmlns:inkscape="http://www.inkscape.org/namespaces/inkscape"
   width="0.78739709in"
   height="0.78739709in"
   viewBox="0 0 56.692498 56.692901"
   xml:space="preserve"
   class="st5"
   version="1.1"
   id="svg56"
   sodipodi:docname="HDInsight Cluster.svg"
   style="font-size:12px;overflow:visible;color-interpolation-filters:sRGB;fill:none;fill-rule:evenodd;stroke-linecap:square;stroke-miterlimit:3"
   inkscape:version="0.92.5 (2060ec1f9f, 2020-04-08)"><metadata
   id="metadata60"><rdf:RDF><cc:Work
       rdf:about=""><dc:format>image/svg+xml</dc:format><dc:type
         rdf:resource="http://purl.org/dc/dcmitype/StillImage" /></cc:Work></rdf:RDF></metadata><sodipodi:namedview
   pagecolor="#ffffff"
   bordercolor="#666666"
   borderopacity="1"
   objecttolerance="10"
   gridtolerance="10"
   guidetolerance="10"
   inkscape:pageopacity="0"
   inkscape:pageshadow="2"
   inkscape:window-width="640"
   inkscape:window-height="480"
   id="namedview58"
   showgrid="false"
   inkscape:zoom="1.4193119"
   inkscape:cx="37.795128"
   inkscape:cy="37.78433"
   inkscape:window-x="0"
   inkscape:window-y="0"
   inkscape:window-maximized="0"
   inkscape:current-layer="svg56" />
	<style
   type="text/css"
   id="style2">
	<![CDATA[
		.st1 {fill:none;stroke:none;stroke-linecap:butt;stroke-width:34}
		.st2 {fill:#0078d4;stroke:none;stroke-linecap:butt;stroke-width:34}
		.st3 {fill:url(#grad0-10);stroke:none;stroke-linecap:butt;stroke-width:34}
		.st4 {fill:#5ea0ef;stroke:none;stroke-linecap:butt;stroke-width:34}
		.st5 {fill:none;fill-rule:evenodd;font-size:12px;overflow:visible;stroke-linecap:square;stroke-miterlimit:3}
	]]>
	</style>

	<defs
   id="Patterns_And_Gradients">
		<linearGradient
   id="grad0-10"
   x1="0"
   y1="0"
   x2="1"
   y2="0"
   gradientTransform="rotate(-90,0.5,0.5)">
			<stop
   offset="0.09"
   stop-color="#32bedd"
   stop-opacity="1"
   id="stop4" />
			<stop
   offset="0.21"
   stop-color="#3bcae7"
   stop-opacity="1"
   id="stop6" />
			<stop
   offset="0.42"
   stop-color="#47daf5"
   stop-opacity="1"
   id="stop8" />
			<stop
   offset="0.66"
   stop-color="#4ee3fd"
   stop-opacity="1"
   id="stop10" />
			<stop
   offset="1"
   stop-color="#50e6ff"
   stop-opacity="1"
   id="stop12" />
		</linearGradient>
	<linearGradient
   inkscape:collect="always"
   xlink:href="#grad0-10"
   id="linearGradient4570"
   x1="0"
   y1="113.05523"
   x2="11.65354"
   y2="113.05523"
   gradientUnits="userSpaceOnUse" /><linearGradient
   inkscape:collect="always"
   xlink:href="#grad0-10"
   id="linearGradient4572"
   x1="0"
   y1="113.05523"
   x2="11.65354"
   y2="113.05523"
   gradientUnits="userSpaceOnUse" /><linearGradient
   inkscape:collect="always"
   xlink:href="#grad0-10"
   id="linearGradient4574"
   x1="0"
   y1="113.05523"
   x2="11.65354"
   y2="113.05523"
   gradientUnits="userSpaceOnUse" /></defs>
	<g
   id="g54"
   transform="translate(-34.000441,-34.000001)">
		<title
   id="title16">Page-1</title>
		<g
   id="group19391-1"
   transform="translate(34,-34.0157)">
			<title
   id="title18">HDInsight Cluster.19391</title>
			<g
   id="group19392-2">
				<title
   id="title20">Icon-analytics-142</title>
				<g
   id="shape19393-3">
					<title
   id="title22">Sheet.19393</title>
					<rect
   x="0"
   y="68.015701"
   width="56.692902"
   height="56.692902"
   class="st1"
   id="rect24"
   style="fill:none;stroke:none;stroke-width:34;stroke-linecap:butt" />
				</g>
				<g
   id="shape19394-5"
   transform="translate(1.58264,-2.23622)">
					<title
   id="title27">Sheet.19394</title>
					<path
   d="M 21.47,107.54 H 31.9 A 0.88189,0.88189 -180 0 0 32.750394,106.84709 11.6535,11.6535 0 0 1 36.97,100.08 0.850394,0.850394 -180 0 0 37.190472,98.94614 L 31.77,89.5 A 0.850394,0.850394 -180 0 0 30.69913,89.153543 12.189,12.189 0 0 1 26.76,89.87 11.2126,11.2126 0 0 1 22.7,89.15 0.88189,0.88189 -180 0 0 21.62913,89.559449 L 16.21,99.01 a 0.88189,0.88189 -180 0 0 0.220472,1.13386 11.6535,11.6535 0 0 1 4.189528,6.73614 0.850394,0.850394 -180 0 0 0.850394,0.66142 z M 15.17,78.28 H 8.87 A 0.850394,0.850394 -180 0 0 8.114094,78.720945 L 0.12,92.49 a 0.88189,0.88189 -180 0 0 0,0.88189 L 3.05,98.41 A 0.913386,0.913386 -180 0 0 4.21535,98.787953 11.4016,11.4016 0 0 1 9.25,97.62 a 8.47244,8.47244 0 0 1 1.26,0 0.976378,0.976378 -180 0 0 0.88189,-0.440945 L 13.88,92.93 17.63,86.44 a 0.850394,0.850394 -180 0 0 0,-0.976378 A 11.4961,11.4961 0 0 1 15.05,78.28 Z m 30.3,0.44 A 0.850394,0.850394 -180 0 0 44.714094,78.279055 L 38.42,78.28 a 11.5591,11.5591 0 0 1 -2.46,7.15 0.850394,0.850394 -180 0 0 0,0.976378 l 3.78,6.523622 2.49,4.31 a 0.88189,0.88189 -180 0 0 0.88189,0.440945 L 44.31,97.69 a 11.874,11.874 0 0 1 5.07,1.16 0.850394,0.850394 -180 0 0 0.976378,-0.251969 L 53.28,93.53 a 0.88189,0.88189 -180 0 0 0,-0.88189 z M 32.34,112.58 H 21.03 A 0.88189,0.88189 -180 0 0 20.179606,113.14693 11.4646,11.4646 0 0 1 15.8,118.79 0.913386,0.913386 -180 0 0 15.516535,119.98685 L 18.01,124.27 a 0.913386,0.913386 -180 0 0 0.755906,0.44094 L 34.67,124.71 a 0.913386,0.913386 -180 0 0 0.755906,-0.44095 L 37.88,120.02 A 0.88189,0.88189 -180 0 0 37.596535,118.82315 11.5906,11.5906 0 0 1 33.19,113.15 0.88189,0.88189 -180 0 0 32.339606,112.58307 Z"
   class="st2"
   id="path29"
   inkscape:connector-curvature="0"
   style="fill:#0078d4;stroke:none;stroke-width:34;stroke-linecap:butt" />
				</g>
				<g
   id="shape19395-7"
   transform="translate(5.00787,-11.874)">
					<title
   id="title32">Sheet.19395</title>
					<circle
   cx="5.8267698"
   cy="118.882"
   class="st3"
   id="ellipse34"
   r="5.8267698"
   style="fill:url(#linearGradient4570);stroke:none;stroke-width:34;stroke-linecap:butt" />
				</g>
				<g
   id="shape19396-11"
   transform="translate(39.874,-11.874)">
					<title
   id="title37">Sheet.19396</title>
					<circle
   cx="5.8267698"
   cy="118.882"
   class="st3"
   id="ellipse39"
   r="5.8267698"
   style="fill:url(#linearGradient4572);stroke:none;stroke-width:34;stroke-linecap:butt" />
				</g>
				<g
   id="shape19397-14"
   transform="translate(22.4567,-42.8346)">
					<title
   id="title42">Sheet.19397</title>
					<circle
   cx="5.8267698"
   cy="118.882"
   class="st3"
   id="ellipse44"
   r="5.8267698"
   style="fill:url(#linearGradient4574);stroke:none;stroke-width:34;stroke-linecap:butt" />
				</g>
				<g
   id="shape19398-17"
   transform="translate(27.0236,-2.23622)">
					<title
   id="title47">Sheet.19398</title>
					<path
   d="m 18.68,90.47 a 18.6772,18.6772 -180 0 0 -5.51,0.82 l 0.94,1.64 2.49,4.31 a 0.88189,0.88189 -180 0 0 0.88189,0.440945 L 18.68,97.69 a 11.874,11.874 0 0 1 5.07,1.16 0.850394,0.850394 -180 0 0 1.16535,-0.251969 L 27.4,94.31 28.06,93.15 A 18.5197,18.5197 -180 0 0 18.68,90.47 Z M 7.31,106.85 a 11.6535,11.6535 0 0 1 4.22,-6.77 0.850394,0.850394 -180 0 0 0.220472,-1.13386 L 8.6,93.4 A 18.8976,18.8976 -180 0 0 0,107.54 h 6.49 a 0.88189,0.88189 -180 0 0 0.818898,-0.69291 z m 0.44,6.3 A 0.88189,0.88189 -180 0 0 6.899606,112.58307 L 0.19,112.58 a 18.8976,18.8976 -180 0 0 7.87,12.13 h 1.17 a 0.913386,0.913386 -180 0 0 0.755906,-0.44095 L 12.44,120.02 A 0.88189,0.88189 -180 0 0 12.156535,118.82315 11.5906,11.5906 0 0 1 7.62,113.15 Z"
   class="st4"
   id="path49"
   inkscape:connector-curvature="0"
   style="fill:#5ea0ef;stroke:none;stroke-width:34;stroke-linecap:butt" />
				</g>
			</g>
		</g>
	</g>
</svg>

<?xml version="1.0" encoding="UTF-8" standalone="no"?>
<!DOCTYPE svg PUBLIC "-//W3C//DTD SVG 1.1//EN" "http://www.w3.org/Graphics/SVG/1.1/DTD/svg11.dtd">
<!-- Generated by Microsoft Visio, SVG Export HDInsight Cluster.svg Page-1 -->
<svg xmlns="http://www.w3.org/2000/svg" xmlns:xlink="http://www.w3.org/1999/xlink" xmlns:ev="http://www.w3.org/2001/xml-events"
		width="1.73185in" height="1.73206in" viewBox="0 0 124.693 124.709" xml:space="preserve" color-interpolation-filters="sRGB"
		class="st5">
	<style type="text/css">
	<![CDATA[
		.st1 {fill:none;stroke:none;stroke-linecap:butt;stroke-width:34}
		.st2 {fill:#0078d4;stroke:none;stroke-linecap:butt;stroke-width:34}
		.st3 {fill:url(#grad0-10);stroke:none;stroke-linecap:butt;stroke-width:34}
		.st4 {fill:#5ea0ef;stroke:none;stroke-linecap:butt;stroke-width:34}
		.st5 {fill:none;fill-rule:evenodd;font-size:12px;overflow:visible;stroke-linecap:square;stroke-miterlimit:3}
	]]>
	</style>

	<defs id="Patterns_And_Gradients">
		<linearGradient id="grad0-10" x1="0" y1="0" x2="1" y2="0" gradientTransform="rotate(-90 0.5 0.5)">
			<stop offset="0.09" stop-color="#32bedd" stop-opacity="1"/>
			<stop offset="0.21" stop-color="#3bcae7" stop-opacity="1"/>
			<stop offset="0.42" stop-color="#47daf5" stop-opacity="1"/>
			<stop offset="0.66" stop-color="#4ee3fd" stop-opacity="1"/>
			<stop offset="1" stop-color="#50e6ff" stop-opacity="1"/>
		</linearGradient>
	</defs>
	<g>
		<title>Page-1</title>
		<g id="group18955-1" transform="translate(34,-34.0157)">
			<title>HDInsight Cluster.18955</title>
			<g id="group18956-2">
				<title>Icon-analytics-142</title>
				<g id="shape18957-3">
					<title>Sheet.18957</title>
					<rect x="0" y="68.0157" width="56.6929" height="56.6929" class="st1"/>
				</g>
				<g id="shape18958-5" transform="translate(1.58264,-2.23622)">
					<title>Sheet.18958</title>
					<path d="M21.47 107.54 L31.9 107.54 a0.88189 0.88189 -180 0 0 0.850394 -0.692913 A11.6535 11.6535 0 0 1 36.97
								 100.08 a0.850394 0.850394 -180 0 0 0.220472 -1.13386 L31.77 89.5 a0.850394 0.850394 -180 0 0 -1.07087
								 -0.346457 A12.189 12.189 0 0 1 26.76 89.87 A11.2126 11.2126 0 0 1 22.7 89.15 a0.88189 0.88189 -180
								 0 0 -1.07087 0.409449 L16.21 99.01 a0.88189 0.88189 -180 0 0 0.220472 1.13386 A11.6535 11.6535 0
								 0 1 20.62 106.88 a0.850394 0.850394 -180 0 0 0.850394 0.661417 ZM15.17 78.28 L8.87 78.28 a0.850394
								 0.850394 -180 0 0 -0.755906 0.440945 L0.12 92.49 a0.88189 0.88189 -180 0 0 -3.55271E-14 0.88189
								 L3.05 98.41 a0.913386 0.913386 -180 0 0 1.16535 0.377953 A11.4016 11.4016 0 0 1 9.25 97.62 A8.47244
								 8.47244 0 0 1 10.51 97.62 a0.976378 0.976378 -180 0 0 0.88189 -0.440945 L13.88 92.93 L17.63 86.44
								 a0.850394 0.850394 -180 0 0 0 -0.976378 A11.4961 11.4961 0 0 1 15.05 78.28 L15.17 78.28 ZM45.47
								 78.72 a0.850394 0.850394 -180 0 0 -0.755906 -0.440945 L38.42 78.28 A11.5591 11.5591 0 0 1 35.96
								 85.43 a0.850394 0.850394 -180 0 0 -7.10543E-15 0.976378 L39.74 92.93 L42.23 97.24 a0.88189 0.88189
								 -180 0 0 0.88189 0.440945 L44.31 97.69 A11.874 11.874 0 0 1 49.38 98.85 a0.850394 0.850394 -180
								 0 0 0.976378 -0.251969 L53.28 93.53 a0.88189 0.88189 -180 0 0 7.10543E-15 -0.88189 L45.47 78.72
								 ZM32.34 112.58 L21.03 112.58 a0.88189 0.88189 -180 0 0 -0.850394 0.566929 A11.4646 11.4646 0 0 1
								 15.8 118.79 a0.913386 0.913386 -180 0 0 -0.283465 1.19685 L18.01 124.27 a0.913386 0.913386 -180
								 0 0 0.755906 0.440945 L34.67 124.71 a0.913386 0.913386 -180 0 0 0.755906 -0.440945 L37.88 120.02
								 a0.88189 0.88189 -180 0 0 -0.283465 -1.19685 A11.5906 11.5906 0 0 1 33.19 113.15 a0.88189 0.88189
								 -180 0 0 -0.850394 -0.566929 Z" class="st2"/>
				</g>
				<g id="shape18959-7" transform="translate(5.00787,-11.874)">
					<title>Sheet.18959</title>
					<ellipse cx="5.82677" cy="118.882" rx="5.82677" ry="5.82677" class="st3"/>
				</g>
				<g id="shape18960-11" transform="translate(39.874,-11.874)">
					<title>Sheet.18960</title>
					<ellipse cx="5.82677" cy="118.882" rx="5.82677" ry="5.82677" class="st3"/>
				</g>
				<g id="shape18961-14" transform="translate(22.4567,-42.8346)">
					<title>Sheet.18961</title>
					<ellipse cx="5.82677" cy="118.882" rx="5.82677" ry="5.82677" class="st3"/>
				</g>
				<g id="shape18962-17" transform="translate(27.0236,-2.23622)">
					<title>Sheet.18962</title>
					<path d="M18.68 90.47 A18.6772 18.6772 -180 0 0 13.17 91.29 L14.11 92.93 L16.6 97.24 a0.88189 0.88189 -180 0
								 0 0.88189 0.440945 L18.68 97.69 A11.874 11.874 0 0 1 23.75 98.85 a0.850394 0.850394 -180 0 0 1.16535
								 -0.251969 L27.4 94.31 L28.06 93.15 A18.5197 18.5197 -180 0 0 18.68 90.47 ZM7.31 106.85 A11.6535
								 11.6535 0 0 1 11.53 100.08 a0.850394 0.850394 -180 0 0 0.220472 -1.13386 L8.6 93.4 A18.8976 18.8976
								 -180 0 0 0 107.54 L6.49 107.54 a0.88189 0.88189 -180 0 0 0.818898 -0.692913 ZM7.75 113.15 a0.88189
								 0.88189 -180 0 0 -0.850394 -0.566929 L0.19 112.58 A18.8976 18.8976 -180 0 0 8.06 124.71 L9.23 124.71
								 a0.913386 0.913386 -180 0 0 0.755906 -0.440945 L12.44 120.02 a0.88189 0.88189 -180 0 0 -0.283465
								 -1.19685 A11.5906 11.5906 0 0 1 7.62 113.15 L7.75 113.15 Z" class="st4"/>
				</g>
			</g>
		</g>
	</g>
</svg>
